img/icons/sprite/icon-vkontakte.svg

<svg viewBox="0 0 23 12" xmlns="http://www.w3.org/2000/svg">
  <path
    d="M17.7664 11.8331C17.219 11.8207 16.6854 11.6573 16.2232 11.3606C15.7407 11.031 15.2975 10.6459 14.9026 10.2131C14.5761 9.88315 14.0345 9.32815 13.8268 9.32815C13.619 9.32815 13.4706 10.0181 13.478 10.5056C13.4812 10.8422 13.3564 11.167 13.1293 11.4131C12.8712 11.6263 12.5561 11.7569 12.2242 11.7881H10.7997C8.75222 11.7426 6.79178 10.9425 5.28708 9.53815C2.55676 7.01065 0.21224 2.18065 0.115789 1.97065C0.0237889 1.79521 -0.0147389 1.59616 0.00506792 1.3986C0.0248747 1.20105 0.102128 1.01386 0.227079 0.860649C0.509857 0.622256 0.867951 0.494496 1.23611 0.500649H4.26321H4.35224C4.6027 0.537588 4.84277 0.626997 5.05708 0.763149C5.25875 0.899848 5.42022 1.08899 5.5245 1.31065C5.8444 2.00295 6.2113 2.67204 6.62256 3.31315C7.5945 4.81315 8.02482 5.15815 8.18063 5.23315C8.35396 4.52985 8.40169 3.80091 8.3216 3.08065C8.3476 2.7526 8.29412 2.4231 8.16579 2.12065C8.00289 1.98893 7.80288 1.91278 7.5945 1.90315L7.05289 1.38565C6.94901 0.890649 7.49063 0.463149 7.86902 0.298149C8.62414 0.0589723 9.41638 -0.0376377 10.2061 0.013149H10.7329C11.2686 -0.000953053 11.8041 0.0494006 12.328 0.163149C13.5893 0.433149 13.5448 1.46065 13.4929 2.64565C13.4929 2.99065 13.4558 3.39565 13.4558 3.86065C13.4558 3.97315 13.4558 4.09315 13.4558 4.22065C13.4266 4.54717 13.4492 4.87631 13.5226 5.19565C14.1402 4.67331 14.6604 4.04337 15.0584 3.33565C15.4879 2.66645 15.865 1.96431 16.1861 1.23565V1.23565C16.2839 1.00519 16.4516 0.812043 16.6649 0.684009C16.8782 0.555974 17.1262 0.499653 17.3732 0.523149H20.5487C20.6425 0.514104 20.7369 0.514104 20.8306 0.523149C21.5726 0.523149 22.0103 0.740649 22.1884 1.16065C22.3664 1.58065 22.3145 2.40565 20.4374 4.61815L19.6955 5.46565C19.336 5.81847 19.0264 6.21976 18.7755 6.65815C19.0565 6.98108 19.3754 7.2682 19.7251 7.51315C20.5778 8.16264 21.3283 8.93895 21.951 9.81565C22.097 9.98613 22.1925 10.1948 22.2266 10.4176C22.2608 10.6405 22.2321 10.8685 22.1439 11.0756C21.9884 11.3051 21.7803 11.4931 21.5375 11.6237C21.2946 11.7542 21.0241 11.8235 20.749 11.8256L17.9371 11.8631L17.7664 11.8331ZM13.8268 8.20315C14.4945 8.20315 15.0732 8.79565 15.689 9.41815C16.0217 9.78534 16.3951 10.1125 16.8019 10.3931C17.1096 10.6 17.4711 10.7096 17.8406 10.7081H17.9148L20.7342 10.6706C20.8732 10.6626 21.0094 10.6269 21.1348 10.5656L21.0606 10.4456C20.499 9.67196 19.8292 8.98479 19.0722 8.40565C18.1893 7.65565 17.7368 7.30315 17.6848 6.72565C17.6329 6.14815 18.0484 5.64565 18.8793 4.69315L19.6213 3.86065C20.2477 3.21479 20.7618 2.46681 21.1422 1.64815C20.9767 1.63823 20.8107 1.63823 20.6451 1.64815H17.4029C17.3443 1.6349 17.2835 1.6349 17.2248 1.64815C16.8814 2.44423 16.4719 3.20947 16.0006 3.93565C14.5984 6.05065 13.938 6.33565 13.4706 6.33565C13.3257 6.33565 13.183 6.29959 13.0551 6.23065C12.3132 5.80315 12.3132 4.85065 12.3577 4.16065C12.3577 4.04815 12.3577 3.93565 12.3577 3.83815C12.3577 3.35065 12.3577 2.93065 12.3948 2.57065C12.4542 1.31065 12.3948 1.30315 12.1129 1.23565C11.6586 1.14491 11.1958 1.10467 10.7329 1.11565H10.221C9.74988 1.10581 9.27872 1.13088 8.81127 1.19065C8.88207 1.24338 8.94459 1.30659 8.99676 1.37815C9.30278 1.8659 9.4554 2.43595 9.4345 3.01315C9.53095 4.25065 9.47901 5.86315 8.69256 6.25315C8.5533 6.31903 8.40115 6.35235 8.2474 6.35065C7.5574 6.35065 6.87482 5.69065 5.70998 3.90565C5.26298 3.22218 4.86383 2.50794 4.51547 1.76815L4.45611 1.69315C4.38118 1.65454 4.30126 1.62677 4.21869 1.61065H1.25095H1.19901C1.63676 2.52565 3.71418 6.57565 6.03643 8.69815C7.34044 9.90918 9.02994 10.6088 10.7997 10.6706H12.1722C12.2422 10.6555 12.3097 10.6303 12.3726 10.5956C12.3726 10.5956 12.3726 10.5956 12.3726 10.5281C12.3726 10.3256 12.3726 8.57815 13.5448 8.27815C13.6356 8.24202 13.7302 8.21685 13.8268 8.20315V8.20315Z" />
</svg>

<svg viewBox="0 0 23 12" xmlns="http://www.w3.org/2000/svg"><path d="M17.766 11.833a2.981 2.981 0 01-1.543-.472 7.563 7.563 0 01-1.32-1.148c-.327-.33-.869-.885-1.076-.885-.208 0-.356.69-.349 1.178a1.32 1.32 0 01-.349.907 1.666 1.666 0 01-.905.375H10.8a8.35 8.35 0 01-5.513-2.25C2.557 7.011.212 2.181.116 1.971A1.014 1.014 0 01.227.86 1.53 1.53 0 011.237.5h3.115c.25.037.49.126.704.262.202.137.363.326.467.548.32.692.687 1.361 1.099 2.002.971 1.5 1.402 1.845 1.558 1.92a6.154 6.154 0 00.14-2.152 2.045 2.045 0 00-.155-.96.98.98 0 00-.572-.218l-.541-.517C6.949.89 7.49.463 7.869.298a6.382 6.382 0 012.337-.285h.527a6.688 6.688 0 011.595.15c1.261.27 1.217 1.298 1.165 2.483 0 .345-.037.75-.037 1.215v.36c-.03.326-.007.655.067.975a6.803 6.803 0 001.535-1.86c.43-.67.807-1.372 1.128-2.1.098-.23.266-.424.479-.552.213-.128.461-.184.708-.16h3.176c.093-.01.188-.01.282 0 .742 0 1.18.217 1.357.637.178.42.127 1.245-1.75 3.457l-.742.848c-.36.352-.67.754-.92 1.192.28.323.6.61.95.855.852.65 1.602 1.426 2.225 2.303a1.206 1.206 0 01.193 1.26 1.693 1.693 0 01-1.395.75l-2.812.037-.17-.03zm-3.94-3.63c.668 0 1.247.593 1.863 1.215.333.367.706.695 1.113.975.308.207.67.317 1.039.315h.074l2.82-.037a1.05 1.05 0 00.4-.105l-.074-.12a9.864 9.864 0 00-1.989-2.04c-.883-.75-1.335-1.103-1.387-1.68-.052-.578.363-1.08 1.194-2.033l.742-.832a8.05 8.05 0 001.521-2.213 4.155 4.155 0 00-.497 0h-3.242a.404.404 0 00-.178 0A15.422 15.422 0 0116 3.936c-1.403 2.115-2.063 2.4-2.53 2.4a.876.876 0 01-.416-.105c-.742-.428-.742-1.38-.697-2.07v-.323c0-.487 0-.907.037-1.267.06-1.26 0-1.268-.282-1.335a6.285 6.285 0 00-1.38-.12h-.512a9.543 9.543 0 00-1.41.075.88.88 0 01.186.187 2.89 2.89 0 01.438 1.635c.096 1.238.044 2.85-.742 3.24-.14.066-.292.1-.446.098-.69 0-1.372-.66-2.537-2.445a17.617 17.617 0 01-1.195-2.138l-.059-.075a.891.891 0 00-.237-.082h-3.02c.438.915 2.515 4.965 4.837 7.087a7.378 7.378 0 004.764 1.973h1.372a.736.736 0 00.2-.075v-.068c0-.202 0-1.95 1.173-2.25a1.23 1.23 0 01.282-.075z"/></svg>
